X:1
T:Ma nel raggio
T:Antonio Cifra
T:Source : Le diversi Scherzi a uno, a due et tre voci---Libro secondo---Roma---G.B.Robletti---1613. Editor ; André Vierendeels (12/11/16).
T:Notes : Original clefs : C1, C1, F4, F4 Editorial accidentals above the staff
T:Romano
T:Ma nel raggio
T:Canzonetta
T:©
T:©
T:©
T:©
C:Antonio Cifra
Z:©
%%score [ 1 2 3 ] 4
L:1/8
Q:1/4=128
M:4/4
K:C
V:1 treble nm="Soprano 1" snm="S 1"
V:2 treble nm="Soprano 2" snm="S 2"
V:3 bass nm="Bass" snm="B"
V:4 bass nm="MusicXML Part"
V:1
 z4 d2 d2 | GABc d2 dd | e4 d2 z d | c3 A B3 G | A3 B cB/A/ Bc | A4 G4 | z2 ^G4 A2- | %7
w: Ma nel|rag- * * * * gio lu-|cen- te, chiu-|de- sti fiam- m'ar-|den- * * * * * *|* te,|ahi, fal-|
"^-natural""^-natural" AG G4 F2 | GG c4 B2 | c8 | z4 e2 ee | d2 d2 c2 A2 | c3 d B4 | A8 :: %14
w: * so, ahi crud'|in- vi- * *|to,|ond' ho per|gl'oc- ch'il cor in-|ce- ne- ri-|to,|
 z2 e2 decd | B2 BB cded | c6 B2 | G6 A2 | A8 | B8 :| %20
w: deh' piu non pren- der|gio- co gi- rarm' e rag- gi-|rarrm'- i'à|si gran|fo-|co|
V:2
 d2 d2 GABc | d3 c B2 BB | c4 B4 | z2 z c d3 B | c2 A4 G2- | G2 ^F2 G4 | z2 B4 c2- | c2 G2 A2 B2 | %8
w: Ma nel rag- * * *|* * * gio lu-|cen- te,|chiu- de- sti|fiam' m'ar- den-|* * te,|ahi, fal|_ so, ahi crud'|
 cdec d4 | e4 e2 ee | d2 d2 c2 G2 | A2 B2 E3 F | ^G2 A4 G2 | A8 :: z2 c2 BcAB | ^G2 G2 z2 E2 | %16
w: in- * * * vi-|to, ond' ho per|gl'oc- ch'il cor in-|ce- ne- ri- *||to,|deh' piu non pren- der|gio- co gi-|
 EDCD E2 D2 | E2 ^F2 G4- | G4 ^F4 | G8 :| %20
w: rarm' e rag- gi- ram'- i'à|si gran fo-||co.|
V:3
 z8 | z4 G,2 G,2 | C,D,E,F, G,2 G,G, | A,4 G,2 z G, | F,3 D, E,3 C, | D,4 G,,4 | E,8 | E,4 D,4 | %8
w: |Ma nel|rag- * * * * gio lu-|cen- te, chiu-|de- sti fiam' m'ar-|den- te,|ahi|fal- so'ahi|
 C,2 C,2 G,4 | C,4 C2 CC | B,2 B,2 A,2 E,2 | F,2 G,2 C,3 D, | E,8 | A,,8 :: C,4 G,E,F,D, | %15
w: crud' in vi-|to, ond' ho per|gl'oc- ch'il cor in-|ce- ne- ri- *||to,|deh' piu non pren- der|
 E,2 E,E, A,B,CB, | A,4 G,4 | C,4 B,,4 | D,8 | G,,8 :| %20
w: gio- co gi- rarm' e rag- gi-|rarm'- i'a|si gran|fo-|co.|
V:4
"^BC" G,8- | G,4 G,4 | C,4 G,4 |"^#" A,4 G,4 | F,3 D, E,3 C, | D,4 G,,4 | E,8- | E,4 D,4 | %8
 C,4 G,,4 | C,8 | B,,4 A,,2 E,2 | F,2 G,2 C,3 D, | E,8 | A,,8 :: C,4 G,E,F,D, | E,4 A,B,CB, | %16
 A,4 G,4 | C,4 B,,4 | D,8 | G,,8 :| %20

